!!!!SEGMENT: Jan2004-O_magnum_misterium--Bologna_Q19.krn
!!!id: Jan2004
!!!AGN: Motet
!!!SCT: Sherr (1989)
!!!voices: 4
!!!COM: Maistre Jan
!!!OTL: O magnum misterium (Bologna Q19)
**kern	**kern	**kern	**kern
*part4	*part3	*part2	*part1
*staff4	*staff3	*staff2	*staff1
*I"Bassus	*I"Tenor	*I"Altus	*I"Superius
*I'B	*I'T	*I'A	*I'S
*clefF4	*clefGv2	*clefG2	*clefG2
*k[b-]	*k[b-]	*k[b-]	*k[b-]
*F:	*F:	*F:	*F:
*M2/1	*M2/1	*M2/1	*M2/1
*met(C|)	*met(C|)	*met(C|)	*met(C|)
!!section: Prima pars: O magnum misterium
!!!OMD: Prima pars: O magnum misterium
=1	=1	=1	=1
0r	0r	0r	0g
=2	=2	=2	=2
0r	0r	0r	0dd
=3	=3	=3	=3
0r	0r	0d	0dd
=4	=4	=4	=4
0r	0r	0g	1b-y
.	.	.	1g
=5	=5	=5	=5
0r	0G	0g	1.b-y
.	.	.	2b-y
=6	=6	=6	=6
0r	0d	1f	1a
.	.	1d	[1dd
=7	=7	=7	=7
0D	0d	1.f	2dd]
.	.	.	4cc
.	.	.	4b-y
.	.	.	[1a
.	.	2f	.
=8	=8	=8	=8
0A	1c	1.e	2a]
.	.	.	4g
.	.	.	4f
.	1c	.	1e
.	.	4d	.
.	.	4c	.
=9	=9	=9	=9
0A	1.f	0c	1a
.	.	.	[1a
.	2e	.	.
=10	=10	=10	=10
1F	2d	1A	1a]
.	2.c	.	.
1D	.	1F	[1f
.	8B-yL	.	.
.	8AJ	.	.
.	2B-y	.	.
=11	=11	=11	=11
1.F	2.A	2c	1f]
.	.	1d	.
.	4F	.	.
.	2A	.	1cc
2E	[2G	[2c	.
=12	=12	=12	=12
0D	2G]	2c]	1.ff
.	4F	4B-y	.
.	4E	4A	.
.	1F	1B-y	.
.	.	.	2ff
=13	=13	=13	=13
0C	1G	2.c	1ee
.	.	4d	.
.	1r	4e	2cc
.	.	4f	.
.	.	[2g	[2ee
=14	=14	=14	=14
1r	1c	4g]	4ee]
.	.	4f	4dd
.	.	2e	1cc
1G	[1g	1d	.
.	.	.	2bni
=15	=15	=15	=15
1.c	2g]	0e	1cc
.	2g	.	.
.	1g	.	1r
2c	.	.	.
=16	=16	=16	=16
1c	1e	1r	1g
1A	1c	1e	[1cc
=17	=17	=17	=17
1G	1d	1.g	2cc]
.	.	.	2b-y
[1c	2e	.	2.cc
.	[2e	2g	.
.	.	.	4cc
=18	=18	=18	=18
2c]	2e]	1g	2g
2Bni	2d	.	1dd
1c	[1g	1e	.
.	.	.	2cc
=19	=19	=19	=19
1G	2g]	2d	2.b-y
.	4f	1d	.
.	4e	.	4a
1r	2d	.	2b-y
.	2c	2e	[2cc
=20	=20	=20	=20
1G	1d	2.g	2cc]
.	.	.	2b-y
.	.	4f	.
[1c	1r	4e	2a
.	.	4d	.
.	.	[2e	2g
=21	=21	=21	=21
2c]	0r	2e]	2a
2B-y	.	1f	2b-y
1c	.	.	2g
.	.	4e	[2cc
.	.	4d	.
=22	=22	=22	=22
1A	1c	1e	4cc]
.	.	.	4b-y
.	.	.	4a
.	.	.	4g
1F	2f	2r	1a
.	[2f	2c	.
=23	=23	=23	=23
1.B-y	4f]	2.d	1b-y
.	4e	.	.
.	4d	.	.
.	4c	8eL	.
.	.	8fJ	.
.	2d	2g	2g
2A	[2c	[2f	2a
=24	=24	=24	=24
1G	2c]	2f]	1b-y
.	2B-y	2e	.
[1F	1c	2.f	2a
.	.	.	[2cc
.	.	4e	.
=25	=25	=25	=25
1F]	1r	2d	4cc]
.	.	.	4b-y
.	.	2.c	2.a
1r	1F	.	.
.	.	4B-y	4g
.	.	2A	[2f
=26	=26	=26	=26
1C	1c	1G	2f]
.	.	.	2e
1F	2c	[1A	2.f
.	[2c	.	.
.	.	.	4g
=27	=27	=27	=27
2F	2c]	1A]	1a
1F	2c	.	.
.	1c	2F	1r
2E	.	2G	.
=28	=28	=28	=28
1D	1d	2A	1f
.	.	2B-y	.
2r	[1f	2.F	1cc
2F	.	.	.
.	.	4G	.
=29	=29	=29	=29
2.F	2f]	2.A	2cc
.	2f	.	1cc
4G	.	4B-y	.
[1A	[1e	[1c	.
.	.	.	2cc
=30	=30	=30	=30
1A]	1e]	2c]	1cc
.	.	2A	.
[1D	2d	1A	1dd
.	[2f	.	.
=31	=31	=31	=31
1D]	4f]	1r	1.ff
.	4g	.	.
.	4a	.	.
.	4f	.	.
1r	1g	1c	.
.	.	.	2ee
=32	=32	=32	=32
0r	2r	1g	1.dd
.	2G	.	.
.	2B-y	2g	.
.	2c	[2g	4cc
.	.	.	4b-y
=33	=33	=33	=33
1r	1d	2g]	1a
.	.	2f#i	.
2r	1G	1g	2.b-y
2G	.	.	.
.	.	.	4cc
=34	=34	=34	=34
2.B-y	2r	1d	1.dd
.	2B-y	.	.
4c	.	.	.
1d	2.A	[1f	.
.	.	.	[2ff
.	4B-y	.	.
=35	=35	=35	=35
1D	1d	2f]	4ff]
.	.	.	4ee
.	.	2f	1dd
1r	1A	1e	.
.	.	.	2cc
=36	=36	=36	=36
1D	1r	1d	2b-y
.	.	.	2a
1G	1d	2r	2b-y
.	.	[2g	[2dd
=37	=37	=37	=37
2G	1g	2g]	4dd]
.	.	.	4cc
1G	.	4f	4b-y
.	.	4e	4a
.	2g	1d	1b-y
2G	2g	.	.
=38	=38	=38	=38
2.A	2e	1c	2a
.	1f	.	1a
4B-y	.	.	.
1c	.	1r	.
.	2e	.	2g
=39	=39	=39	=39
1r	2d	1F	1a
.	2.c	.	.
1F	.	1f	1r
.	4B-y	.	.
.	4A	.	.
.	4G	.	.
=40	=40	=40	=40
1c	2.F	2f	1a
.	.	2f	.
.	4G	.	.
2.F	2.A	2c	1cc
.	.	[2f	.
4G	4B-y	.	.
=41	=41	=41	=41
0A	1c	2f]	2cc
.	.	2e	2cc
.	4F	2d	2a
.	4G	.	.
.	4A	4c	[2cc
.	4B-y	4d	.
=42	=42	=42	=42
0r	2c	4e	2cc]
.	.	4f	.
.	2G	1g	2b-y
.	1d	.	1a
.	.	2f	.
=43	=43	=43	=43
1G	1B-y	2e	1g
.	.	2d	.
[1c	1A	1e	1r
=44	=44	=44	=44
2c]	1e	0r	1g
2c	.	.	.
[1c	[1g	.	[1cc
=45	=45	=45	=45
1c]	2g]	1e	2cc]
.	2g	.	2cc
1F	2.a	2.f	[1cc
.	4g	4g	.
=46	=46	=46	=46
0r	2f	2a	1cc]
.	2e	1g	.
.	1d	.	1a
.	.	2f	.
=47	=47	=47	=47
1G	2r	2e	1r
.	2.g	2d	.
[1c	.	2.e	1g
.	4f	.	.
.	4e	.	.
.	4d	4f	.
=48	=48	=48	=48
2c]	1e	2g	1.cc
2c	.	2.a	.
1c	2.c	.	.
.	.	4g	.
.	.	2e	2cc
.	4d	.	.
=49	=49	=49	=49
2.A	4e	1a	0cc
.	4c	.	.
.	1f	.	.
4B-y	.	.	.
1c	.	1g	.
.	2e	.	.
=50	=50	=50	=50
2.F	2c	1f	1a
.	1f	.	.
4G	.	.	.
1A	.	1r	1cc
.	2e	.	.
=51	=51	=51	=51
2D	1d	1f	2dd
2d	.	.	1ff
2c	2r	2g	.
2A	2c	[2a	2ee
=52	=52	=52	=52
1B-y	1d	2a]	1dd
.	.	2g	.
1A	1f	1a	[1cc
=53	=53	=53	=53
0r	2e	2g	2cc]
.	2d	2f	2b-y
.	[1f	4d	2.a
.	.	4e	.
.	.	4f	.
.	.	4g	4b-y
=54	=54	=54	=54
0r	2f]	2a	4cc
.	.	.	4a
.	2g	2g	1dd
.	1a	2.f	.
.	.	.	[2cc
.	.	4e	.
=55	=55	=55	=55
1G	1g	4d	2cc]
.	.	4c	.
.	.	2d	2bni
2A	2f	1c	2.cc
[2c	4e	.	.
.	4d	.	8b-yL
.	.	.	8aJ
=56	=56	=56	=56
2c]	2e	2r	1g
2B-y	1d	2d	.
1A	.	2e	1a
.	2c	2f	.
=57	=57	=57	=57
1.G	2r	2.g	0r
.	2d	.	.
.	.	4f	.
.	2e	2g	.
2F	2f	2a	.
=58	=58	=58	=58
2.B-y	2.g	1d	1r
4A	4f	.	.
2G	2g	2B-y	2r
2F	2a	2c	2f
=59	=59	=59	=59
2B-y	1d	2d	2g
2A	.	1f	2a
1G	1B-y	.	2.b-y
.	.	2e	.
.	.	.	4g
=60	=60	=60	=60
1F	2c	2f	2a
.	2c	2.a	1cc
1r	2d	.	.
.	.	8gL	.
.	.	8fJ	.
.	2e	2g	2b-y
=61	=61	=61	=61
2r	2.f	2d	2a
2F	.	2a	1dd
.	4d	.	.
2G	2e	2r	.
2A	2f	2a	2cc
=62	=62	=62	=62
2.B-y	1d	2f	1dd
.	.	2g	.
4G	.	.	.
2A	1c	2f	2r
[2c	.	[2e	2g
=63	=63	=63	=63
2c]	2r	2e]	2a
2B-y	2d	2.d	2b-y
1A	2e	.	2.cc
.	.	8cL	.
.	.	8B-yJ	.
.	2f	2c	.
.	.	.	4a
=64	=64	=64	=64
2G	2g	1.d	2b-y
2F	2a	.	1cc
1G	1g	.	.
.	.	2e	2b-y
=65	=65	=65	=65
1D	2r	1f	2a
.	1a	.	1dd
1A	.	1e	.
.	2e	.	2cc#i
=66	=66	=66	=66
[0Dl	2.f	[0dl	[0ddl
.	4g	.	.
.	1a	.	.
=	=	=	=
00D]	00f	00d]	00dd]
=||	=||	=||	=||
*M2/1	*M2/1	*M2/1	*M2/1
*met(C|)	*met(C|)	*met(C|)	*met(C|)
!!section: Secunda pars: Parvulus filius hodie
!!!OMD: Secunda pars: Parvulus filius hodie
[0G	0d	0g	0b-y
=67	=67	=67	=67
1G]	1B-y	1e-X	1b-y
1G	1G	1d	1b-y
=68	=68	=68	=68
2.D	1.d	1.f	1.a
4E	.	.	.
4F	.	.	.
4G	.	.	.
2A	2c	2e	2a
=69	=69	=69	=69
2D	2.f	2d	2.a
1F	.	4c	.
.	4g	4B-y	4b-y
.	4a	2A	2cc
.	4f	.	.
2D	[2a	2F	[2dd
=70	=70	=70	=70
1E	4a]	1G	2dd]
.	4g	.	.
.	1g	.	2cc#i
1D	.	1A	1dd
.	2f	.	.
=71	=71	=71	=71
0G	2e-X	2.B-y	1r
.	4d	.	.
.	4c	4c	.
.	2.B-y	2d	[1g
.	.	4G	.
.	4c	4A	.
=72	=72	=72	=72
1r	2d	4B-y	2g]
.	.	4c	.
.	2G	2d	2g
[1c	1r	2e	1g
.	.	4c	.
.	.	4d	.
=73	=73	=73	=73
2c]	1r	4e	1.cc
.	.	4f	.
2B-y	.	1g	.
1A	1c	.	.
.	.	2f#i	2a
=74	=74	=74	=74
1G	2d	1g	2.b-y
.	2e	.	.
.	.	.	4cc
1F	1f	1r	2dd
.	.	.	[2cc
=75	=75	=75	=75
1G	2e	1.g	2cc]
.	2d	.	2b-y
1r	2e	.	1cc
.	2f	2f	.
=76	=76	=76	=76
1.c	1g	1e	1r
.	1G	1d	1g
2B-y	.	.	.
=77	=77	=77	=77
1A	0r	1c	2f
.	.	.	2f
1G	.	2.d	1b-y
.	.	4e	.
=78	=78	=78	=78
2F	2r	2f	2a
2G	2g	1e	2g
1A	2e	.	1cc
.	2f	4d	.
.	.	4c	.
=79	=79	=79	=79
1G	1g	1d	2b-y
.	.	.	2.dd
1r	2c	2e	.
.	.	.	4cc
.	2e	2c	[2cc
=80	=80	=80	=80
1G	1d	1g	2cc]
.	.	.	2bni
2A	2c	2f	1cc
[2c	2c	[2e	.
=81	=81	=81	=81
2c]	2A	2e]	1r
2B-y	2B-y	2d	.
1A	2.c	2e	1cc
.	.	2f	.
.	4F	.	.
=82	=82	=82	=82
0r	1B-y	1d	2dd
.	.	.	1ff
.	1A	2r	.
.	.	2c	2ee
=83	=83	=83	=83
2r	2B-y	2d	2dd
2F	2c	1f	4cc
.	.	.	4b-y
2A	2F	.	2a
[2c	2r	2e	2g
=84	=84	=84	=84
2c]	2r	1d	1dd
2B-y	2d	.	.
2A	2e	2r	2cc
[2G	[2g	[2d	[2b-y
=85	=85	=85	=85
2G]	2g]	2d]	2b-]
1D	2f	2d	4a
.	.	.	4g
.	2e	2c	[1a
[2A	[2d	2d	.
=86	=86	=86	=86
1A]	2d]	1e	1a]
.	2c#i	.	.
1D	1d	1f	2r
.	.	.	2a
=87	=87	=87	=87
0r	2G	2r	2b-y
.	1B-y	2d	1dd
.	.	2d	.
.	2c	[2g	2cc
=88	=88	=88	=88
0r	1d	2g]	2b-y
.	.	2f	1a
.	2.c	1e	.
.	.	.	2g
.	8dL	.	.
.	8eJ	.	.
=89	=89	=89	=89
0r	4f	2d	2b-y
.	4d	.	.
.	1g	2c	2cc
.	.	1d	1a
.	2f	.	.
=90	=90	=90	=90
1G	2e	1B-y	1g
.	2d	.	.
[1c	1e	1A	1r
=91	=91	=91	=91
1c]	0r	1e	1g
2c	.	[1g	[1cc
[2c	.	.	.
=92	=92	=92	=92
1c]	1e	2g]	2cc]
.	.	2g	2cc
1F	2.f	2.a	[1cc
.	4g	4g	.
=93	=93	=93	=93
0r	2a	2f	1cc]
.	1g	2e	.
.	.	1d	1a
.	2f	.	.
=94	=94	=94	=94
1G	2e	2r	1r
.	2d	2.g	.
[1c	2.e	.	1g
.	.	4f	.
.	.	4e	.
.	4f	4d	.
=95	=95	=95	=95
2c]	2g	1e	1.cc
2c	2.a	.	.
1c	.	2.c	.
.	4g	.	.
.	2e	.	2cc
.	.	4d	.
=96	=96	=96	=96
2.A	1a	4e	0cc
.	.	4c	.
.	.	1f	.
4B-y	.	.	.
1c	1g	.	.
.	.	2e	.
=97	=97	=97	=97
2.F	1f	2c	1a
.	.	1f	.
4G	.	.	.
1A	1r	.	1cc
.	.	2e	.
=98	=98	=98	=98
2D	1f	1d	2dd
2d	.	.	1ff
2c	2g	2r	.
2A	[2a	2c	2ee
=99	=99	=99	=99
1B-y	2a]	1d	1dd
.	2g	.	.
1A	1a	1f	[1cc
=100	=100	=100	=100
0r	2g	2e	2cc]
.	2f	2d	2b-y
.	4d	[1f	2.a
.	4e	.	.
.	4f	.	.
.	4g	.	4b-y
=101	=101	=101	=101
0r	2a	2f]	4cc
.	.	.	4a
.	2g	2g	1dd
.	2.f	1a	.
.	.	.	[2cc
.	4e	.	.
=102	=102	=102	=102
1G	4d	1g	2cc]
.	4c	.	.
.	2d	.	2bni
2A	1c	2f	2.cc
[2c	.	4e	.
.	.	4d	8b-yL
.	.	.	8aJ
=103	=103	=103	=103
2c]	2r	2e	1g
2B-y	2d	1d	.
1A	2e	.	1a
.	2f	2c	.
=104	=104	=104	=104
1.G	2.g	2r	0r
.	.	2d	.
.	4f	.	.
.	2g	2e	.
2F	2a	2f	.
=105	=105	=105	=105
2.B-y	1d	2.g	1r
4A	.	4f	.
2G	2B-y	2g	2r
2F	2c	2a	2f
=106	=106	=106	=106
2B-y	2d	1d	2g
2A	1f	.	2a
1G	.	1B-y	2.b-y
.	2e	.	.
.	.	.	4g
=107	=107	=107	=107
1F	2f	2c	2a
.	2.a	2c	1cc
1r	.	2d	.
.	8gL	.	.
.	8fJ	.	.
.	2g	2e	2b-y
=108	=108	=108	=108
2r	2d	2.f	2a
2F	2a	.	1dd
.	.	4d	.
2G	2r	2e	.
2A	2a	2f	2cc
=109	=109	=109	=109
2.B-y	2f	1d	1dd
.	2g	.	.
4A	.	.	.
2A	2f	1c	2r
[2c	[2e	.	2g
=110	=110	=110	=110
2c]	2e]	2r	2a
2B-y	2.d	2d	2b-y
1A	.	2e	2.cc
.	4c	.	.
.	2c	2f	.
.	.	.	4a
=111	=111	=111	=111
2G	2.d	2g	2b-y
2F	.	2a	1cc
.	4c	.	.
1G	2d	1g	.
.	2e	.	2b-y
=112	=112	=112	=112
1D	1f	2r	2a
.	.	1a	1dd
1A	1e	.	.
.	.	2e	2cc#i
=113	=113	=113	=113
[0Dl	[0dl	2.f	[0ddl
.	.	4g	.
.	.	1a	.
=114	=114	=114	=114
00D]	00d]	00fl	00dd]
==	==	==	==
*-	*-	*-	*-
!!!system-decoration: [*]
!!!RDF**kern: i = editorial accidental
!!!RDF**kern: l = terminal long
!!!ENC: Benjamin Ory
!!!END: 2021/1/13
!!!EED: Benjamin Ory
!!!EEV: 2021/05/15
!!!YEC: Copyright 2021 Benjamin Ory, All Rights Reserved
!!!ONB: Translated from MusicXML on 2021/05/15
